X: 27496
T: Molly Will You Do It?
R: reel
M: 4/4
K: Amixolydian
cAAB cdec|degd BGGB|cAAB ceag|fdec A2ed|
cAAB cdec|degd BGGB|cA~A2 (3Bcd eg|fdec A3B:|
cdef gfeg|fedf geed|(3Bcd ef fgeg|fdec A3B|
cdef gfeg|fdeA defg|af(3gfe fdec|dfec A3B|
cdef ~g3e|~f2df gfed|cdef gbag|fdec A3B|
cdef ~g3a|fdeA d2(3efg|afge fdec|dfec A3B|

